X:1
T:Campbell's Farewell to Redcastle
M:4/4
R:March
S:Source: The Angus Sessions Podcast
K:DMix
A2|:D3E F2G2|A2 d2 A3G|F2 D2 D2 EF| G3EC2 E2|!
D3E F2G2|A2 d2 A3G|F2 ED C2 E2|1 D4 D2 A2 :|2D4 D2 cB||!
A2d2d2cB|A2d2A3G|F2D2D2EF|G3EC2 cB|!
A2d2d2cB|A2d2A3G|F2 ED C2 E2|D4 D2 cB|!
A2d2d2cB|A2d2A3G|F2D2D2EF|G3EC2 E2|!
DEFG FGAB|ABcd A3G|F2 ED C2 E2|D4 D4||
